icons/glyphs/glyph-playlist.svg

<?xml version="1.0" encoding="UTF-8" standalone="no"?><svg height="16" viewBox="0 0 4.2333333 4.2333333" width="16" xmlns="http://www.w3.org/2000/svg"><sodipodi:namedview/><metadata><rdf:RDF><cc:Work><dc:format>image/svg+xml</dc:format><dc:type/><dc:title/></cc:Work></rdf:RDF></metadata><path d="m2.8769531 0c-.1304316 0-.234375.10589651-.234375.23632812v1.71054688h10.7148439v-1.71054688c0-.13043161-.103943-.23632812-.234375-.23632812zm-1.4101562 2.7554688c-.1474917 0-.265625.1200864-.265625.2675781v1.6917969h13.5976561v-1.6917969c0-.1474917-.118133-.2675781-.265625-.2675781h-.759765-.416016-10.7148439-.4492187zm-1.20312502 2.7679687c-.14567244 0-.26367188.1160465-.26367188.2617187v9.9511718c0 .145673.11799944.263672.26367188.263672h15.47265612c.145673 0 .263672-.117999.263672-.263672v-9.9511718c0-.1456722-.117999-.2617187-.263672-.2617187h-.210937-.726563-13.5976561-.8027344zm5.24218752 2.3074219 5.3535156 3.0917966-5.3535156 3.089844z" fill="#d0d0d0" transform="scale(.26458333)"/></svg>

<?xml version="1.0" encoding="UTF-8" standalone="no"?>
<!-- Created with Inkscape (http://www.inkscape.org/) -->

<svg
   xmlns:dc="http://purl.org/dc/elements/1.1/"
   xmlns:cc="http://creativecommons.org/ns#"
   xmlns:rdf="http://www.w3.org/1999/02/22-rdf-syntax-ns#"
   xmlns:svg="http://www.w3.org/2000/svg"
   xmlns="http://www.w3.org/2000/svg"
   xmlns:sodipodi="http://sodipodi.sourceforge.net/DTD/sodipodi-0.dtd"
   xmlns:inkscape="http://www.inkscape.org/namespaces/inkscape"
   width="16"
   height="16"
   viewBox="0 0 4.2333333 4.2333333"
   version="1.1"
   id="svg8"
   inkscape:version="0.92+devel (0526f3edb8, 2017-07-23, custom)"
   sodipodi:docname="glyph-playlist.svg">
  <defs
     id="defs2" />
  <sodipodi:namedview
     id="base"
     pagecolor="#002466"
     bordercolor="#ffffff"
     borderopacity="0.38039216"
     inkscape:pageopacity="1"
     inkscape:pageshadow="2"
     inkscape:zoom="31.742136"
     inkscape:cx="11.75865"
     inkscape:cy="13.336262"
     inkscape:document-units="px"
     inkscape:current-layer="svg8"
     inkscape:document-rotation="0"
     showgrid="false"
     inkscape:showpageshadow="false"
     borderlayer="true"
     inkscape:window-width="1920"
     inkscape:window-height="1051"
     inkscape:window-x="0"
     inkscape:window-y="0"
     inkscape:window-maximized="1"
     units="px"
     inkscape:snap-page="true"
     inkscape:snap-grids="false"
     inkscape:snap-to-guides="false"
     inkscape:object-paths="true" />
  <metadata
     id="metadata5">
    <rdf:RDF>
      <cc:Work
         rdf:about="">
        <dc:format>image/svg+xml</dc:format>
        <dc:type
           rdf:resource="http://purl.org/dc/dcmitype/StillImage" />
        <dc:title></dc:title>
      </cc:Work>
    </rdf:RDF>
  </metadata>
  <path
     style="fill:#d0d0d0;stroke-width:0.99999994"
     d="M 2.8769531,0 C 2.7465215,0 2.6425781,0.10589651 2.6425781,0.23632812 V 1.946875 H 13.357422 V 0.23632812 C 13.357422,0.10589651 13.253479,0 13.123047,0 Z M 1.4667969,2.7554688 c -0.1474917,0 -0.265625,0.1200864 -0.265625,0.2675781 V 4.7148438 H 14.798828 V 3.0230469 c 0,-0.1474917 -0.118133,-0.2675781 -0.265625,-0.2675781 H 13.773438 13.357422 2.6425781 2.1933594 Z M 0.26367188,5.5234375 C 0.11799944,5.5234375 0,5.639484 0,5.7851562 V 15.736328 C 0,15.882001 0.11799944,16 0.26367188,16 H 15.736328 C 15.882001,16 16,15.882001 16,15.736328 V 5.7851562 C 16,5.639484 15.882001,5.5234375 15.736328,5.5234375 H 15.525391 14.798828 1.2011719 0.3984375 Z M 5.5058594,7.8308594 10.859375,10.922656 5.5058594,14.0125 Z"
     transform="scale(0.26458333)"
     id="rect811"
     inkscape:connector-curvature="0"
     sodipodi:nodetypes="ssccsssssccssccccsssssssssccccscccc"
     inkscape:label="#" />
</svg>
